X:1
T:Title
%%score { ( 1 3 ) | ( 2 4 ) }
L:1/8
M:4/4
K:G
V:1 treble nm="Grand Piano"
V:3 treble 
V:2 bass 
V:4 bass 
V:1
 z4 z2[Q:1/4=100] G2 | G2 G2 E3 F | G2 G2 z2 [EA]2 | B2 G2 A3 G |[M:3/4] G6 |[M:1/4] B2 | %6
[M:4/4] [GB]2 [FB]2 [EB]2 [Ge]2 | e4 z4 | [DF]2 [DB]2 [^CG]3 [CE] |[M:3/4] D6 |[M:1/4] [FB]2 | %11
[M:4/4] [Dd]3 [Fd] c2 B2 | d4 z4 | [Cc]3 [Ec] B2 A2 |[M:3/4] B6 |[M:1/4] B2 |[M:4/4] G3 G G2 G2 | %17
 [Gd]4 z4 | %18
 D2 c2 B2 A2[Q:1/4=98][Q:1/4=97][Q:1/4=95][Q:1/4=94][Q:1/4=92][Q:1/4=91][Q:1/4=89][Q:1/4=88][Q:1/4=86][Q:1/4=84][Q:1/4=83][Q:1/4=81][Q:1/4=80][Q:1/4=78][Q:1/4=77] | %19
[M:3/4] [B,G]6 |] %20
V:2
 z4 z2 [G,B,D]2 | [G,B,D]2 [G,B,D]2 [G,C]3 [G,A,D] | [G,B,D]2 [G,B,D]2 z2 [C,G,]2 | %3
 [D,G,D]2 [D,B,D]2 [D,CD]3 [G,B,D] |[M:3/4] [G,B,D]6 |[M:1/4] [G,B,D]2 | %6
[M:4/4] [E,B,]2 [E,A,]2 [E,G,]2 [D,B,]2 | z2 E2 D,2 [B,,G,]2 | [A,,A,]2 [G,,E,]2 [A,,E,]3 [A,,G,] | %9
[M:3/4] [D,F,]6 |[M:1/4] [D,F,]2 |[M:4/4] [B,,B,]3 [B,,A,] [E,^G,E]2 [E,G,E]2 | %12
 [A,F]2 B,2 A,,2 [C,E,]2 | [A,,A,]3 [A,,G,] [D,F,D]2 [D,CD]2 |[M:3/4] [G,B,D]6 |[M:1/4] [G,D]2 | %16
[M:4/4] [E,B,E]3 [E,B,D] [E,A,^C]2 [E,G,]2 | B,2 z2 [D,G,D]2 [D,B,D]2 | %18
 [D,C]2 [D,E]2 [D,E,D]2 [D,F,C]2 |[M:3/4] [G,,G,]6 |] %20
V:3
 x8 | x8 | x8 | x8 |[M:3/4] x6 |[M:1/4] x2 |[M:4/4] x8 | G2 z2 [A,FA]2 [Dd]2 | x8 |[M:3/4] x6 | %10
[M:1/4] x2 |[M:4/4] x8 | z2 ^G2 [CAc]2 [EA]2 | x8 |[M:3/4] x6 |[M:1/4] x2 |[M:4/4] x8 | %17
 z2 D2 B2 G2 | x8 |[M:3/4] x6 |] %20
V:4
 x8 | x8 | x8 | x8 |[M:3/4] x6 |[M:1/4] x2 |[M:4/4] x8 | [^C,A,]4 z4 | x8 |[M:3/4] x6 |[M:1/4] x2 | %11
[M:4/4] x8 | E,4 z4 | x8 |[M:3/4] x6 |[M:1/4] x2 |[M:4/4] x8 | D,4 z4 | x8 |[M:3/4] x6 |] %20

